svgs/sharp-regular/arrow-down-up-lock.svg

<svg xmlns="http://www.w3.org/2000/svg" viewBox="0 0 640 512"><!--! Font Awesome Pro 6.6.0 by @fontawesome - https://fontawesome.com License - https://fontawesome.com/license (Commercial License) Copyright 2024 Fonticons, Inc. --><path d="M128 505.9l17-17 88-88 17-17L216 350.1l-17 17-47 47L152 280l264 0 0-8c0-14.1 2.6-27.6 7.4-40L344 232l0-134.1 47 47 17 17L441.9 128l-17-17L337 23l-17-17L303 23l-88 88-17 17L232 161.9l17-17 47-47L296 232l-144 0-48 0-80 0c-13.3 0-24 10.7-24 24s10.7 24 24 24l80 0 0 134.1L57 367l-17-17L6.1 384l17 17 88 88 17 17zM104 192l48 0 0-136 0-24-48 0 0 24 0 136zM296 320l0 136 0 24 48 0 0-24 0-136-48 0zm232-80c17.7 0 32 14.3 32 32l0 48-64 0 0-48c0-17.7 14.3-32 32-32zm-80 32l0 48-32 0 0 192 224 0 0-192-32 0 0-48c0-44.2-35.8-80-80-80s-80 35.8-80 80z"/></svg>

<svg xmlns="http://www.w3.org/2000/svg" viewBox="0 0 640 512"><!--! Font Awesome Pro 6.4.2 by @fontawesome - https://fontawesome.com License - https://fontawesome.com/license (Commercial License) Copyright 2023 Fonticons, Inc. --><path d="M128 505.9l17-17 88-88 17-17L216 350.1l-17 17-47 47V280H416v-8c0-14.1 2.6-27.6 7.4-40H344V97.9l47 47 17 17L441.9 128l-17-17L337 23l-17-17L303 23l-88 88-17 17L232 161.9l17-17 47-47V232H152 104 24c-13.3 0-24 10.7-24 24s10.7 24 24 24h80V414.1L57 367l-17-17L6.1 384l17 17 88 88 17 17zM104 192h48V56 32H104V56 192zM296 320V456v24h48V456 320H296zm232-80c17.7 0 32 14.3 32 32v48H496V272c0-17.7 14.3-32 32-32zm-80 32v48H416V512H640V320H608V272c0-44.2-35.8-80-80-80s-80 35.8-80 80z"/></svg>
